X:124
T:Killarney Boys of Pleasure
M:4/4
L:1/8
R:Reel
K:EDor
|E2FD E2FA|BFAF DEFA|B2Bd e2ed|BdAF DEFD|
|E2FD E2FA|BFAF DEFA|B2Bd e2ed|1BdAF FEED:|2BdAF FEEA|
|:Be~e2 Befe|BdAF DEFA|f2fe f2fe|dBAF DEFA|
|Be~e2 Befe|BdAF DEFA|f2fe defe|1dBAF E2FA:|2dBAF E3D|]
